X: 26131
T: McGovern's Favourite
R: reel
M: 4/4
K: Adorian
cB|:A3B A~E3|GABd ((3efg) dg|((3efg) ab gedB|((3ABc) BG AGEG|
~A3B A~E3|GABd ((3efg) dg|((3efg) ab gedB|1 ((3ABc) BG AEcB:|2 ((3ABc) BG ABce||
|:a3b agef|gedB ABG2|((3efg) fa gdBd|((3cBA) BG AGEG|
a3b agef|gedB ABGA|B2Bd (3efg fa|1 gedB cAce:|2 gedB AEcB||
"Last" AE cB|!fermata!A2 z z2||

